X:7
T:Fairy Dance, The
C:Trad.Shetland Reel
S:Aly Bain Book
I:speed 350
M:4/4
K:D
|:f2 fd f2 fd | f2 fd cdeg | f2 fd gfed | cABc defg |
f2 fd f2 fd | f2 fd cdeg | f2 fd gfed | cABc defg :|
|: a2 af b2 ba | g2 ge a2 ag | f2 fd gfed | cABc defg |
a2 af b2 ba | gfge a2 ag | f2 fd gfed | cABc d4:|
